flutter/assets/rec.svg

<svg xmlns="http://www.w3.org/2000/svg" width="32pt" height="32pt" style="isolation:isolate" viewBox="633.685 521.772 32 32"><path fill="none" d="M633.685 521.772h32v32h-32v-32Z"/><path fill-rule="evenodd" d="M638.136 537.772a2.972 2.972 0 0 1 2.97-2.97 2.972 2.972 0 0 1 2.97 2.97 2.972 2.972 0 0 1-2.97 2.97 2.972 2.972 0 0 1-2.97-2.97Zm17.155 3.24a.818.818 0 0 0 .283-.052.693.693 0 0 0 .243-.15.603.603 0 0 0 .161-.243.743.743 0 0 0 0-.566.681.681 0 0 0-.408-.383.799.799 0 0 0-.279-.048h-2.575v-1.103h1.743a.844.844 0 0 0 .284-.052.69.69 0 0 0 .404-.389.728.728 0 0 0 0-.56.689.689 0 0 0-.404-.389.844.844 0 0 0-.284-.052h-1.743v-1.052h2.575a.777.777 0 0 0 .522-.195.687.687 0 0 0 .22-.518.74.74 0 0 0-.055-.283.603.603 0 0 0-.161-.243.696.696 0 0 0-.243-.151.841.841 0 0 0-.283-.051h-3.325a.74.74 0 0 0-.283.055.76.76 0 0 0-.247.154.734.734 0 0 0-.221.541v4.98a.764.764 0 0 0 .217.533.74.74 0 0 0 .534.217h3.325Zm5.921-5.447a.6.6 0 0 0-.037-.118 1.013 1.013 0 0 0-.062-.106.635.635 0 0 0-.077-.096l-.089-.077a3.669 3.669 0 0 0-.474-.327 2.477 2.477 0 0 0-.934-.335 3.834 3.834 0 0 0-.615-.048c-.224 0-.445.022-.665.066a2.863 2.863 0 0 0-.6.195 3.578 3.578 0 0 0-.548.305 3.12 3.12 0 0 0-.471.405 3.15 3.15 0 0 0-.386.485 3.245 3.245 0 0 0-.474 1.177 3.757 3.757 0 0 0 0 1.357c.04.214.099.42.18.618.081.199.18.39.294.57.114.173.243.339.386.486.144.151.302.287.475.405.173.117.357.22.548.305.195.084.397.147.607.187a3.247 3.247 0 0 0 1.732-.117c.169-.059.331-.136.489-.225a3.26 3.26 0 0 0 .478-.323.795.795 0 0 0 .184-.261.673.673 0 0 0 .059-.287.782.782 0 0 0-.048-.273.594.594 0 0 0-.143-.235.712.712 0 0 0-.449-.217.816.816 0 0 0-.511.155 2.906 2.906 0 0 1-.283.183 2.476 2.476 0 0 1-.276.129 1.593 1.593 0 0 1-.578.103 1.598 1.598 0 0 1-.96-.309 1.866 1.866 0 0 1-.639-.831 2.052 2.052 0 0 1-.1-1.133c.022-.117.055-.235.1-.345a1.832 1.832 0 0 1 .937-1.005 1.538 1.538 0 0 1 .662-.143 2.6 2.6 0 0 1 .412.033.786.786 0 0 1 .21.063 1.702 1.702 0 0 1 .474.305c.078.062.166.11.258.14a.65.65 0 0 0 .279.036.8.8 0 0 0 .247-.062.728.728 0 0 0 .375-.368.671.671 0 0 0 .055-.272c0-.033 0-.066-.004-.103a.747.747 0 0 0-.018-.092Zm-12.972 3.233h-.555v1.464a.762.762 0 0 1-.055.283.764.764 0 0 1-.155.246.748.748 0 0 1-.246.166.816.816 0 0 1-.295.055.758.758 0 0 1-.533-.217.737.737 0 0 1-.217-.533v-4.98c0-.099.019-.199.055-.294a.752.752 0 0 1 .166-.247.745.745 0 0 1 .246-.154.746.746 0 0 1 .283-.055h1.324c.21 0 .416.025.622.073.184.044.364.11.533.202.166.092.32.206.46.335a2.013 2.013 0 0 1 .559.956c.052.199.077.405.077.611 0 .195-.025.39-.077.577-.048.177-.121.35-.217.504a2.019 2.019 0 0 1-.504.555l.889 1.539a.758.758 0 0 1 .094.273.766.766 0 0 1-.011.29.74.74 0 0 1-.358.462.775.775 0 0 1-.57.078.73.73 0 0 1-.264-.132.78.78 0 0 1-.191-.221l-1.06-1.836Zm.018-2.825c.081 0 .166.011.247.03a.7.7 0 0 1 .438.32.662.662 0 0 1 .066.165c.018.07.029.147.029.221a.602.602 0 0 1-.088.327.579.579 0 0 1-.107.129.94.94 0 0 1-.154.103.93.93 0 0 1-.431.088h-.573v-1.383h.573Z"/></svg>

<?xml version="1.0" encoding="UTF-8" standalone="no"?>
<svg xmlns="http://www.w3.org/2000/svg" xmlns:xlink="http://www.w3.org/1999/xlink" style="isolation:isolate" viewBox="633.685 521.772 32 32" width="32pt" height="32pt"><g><path d=" M 633.685 521.772 L 665.685 521.772 L 665.685 553.772 L 633.685 553.772 L 633.685 521.772 Z " fill="none"/><path d=" M 638.136 537.772 C 638.136 536.133 639.467 534.802 641.106 534.802 C 642.745 534.802 644.076 536.133 644.076 537.772 C 644.076 539.411 642.745 540.742 641.106 540.742 C 639.467 540.742 638.136 539.411 638.136 537.772 L 638.136 537.772 Z  M 655.291 541.012 C 655.386 541.012 655.482 540.994 655.574 540.96 C 655.666 540.927 655.747 540.876 655.817 540.81 C 655.89 540.744 655.945 540.659 655.978 540.567 C 656.015 540.479 656.033 540.379 656.033 540.284 C 656.033 540.188 656.015 540.093 655.978 540.001 C 655.942 539.912 655.883 539.831 655.813 539.765 C 655.743 539.699 655.662 539.651 655.57 539.618 C 655.482 539.585 655.386 539.57 655.291 539.57 L 652.716 539.57 L 652.716 538.467 L 654.459 538.467 C 654.555 538.467 654.651 538.448 654.743 538.415 C 654.835 538.382 654.915 538.331 654.985 538.265 C 655.055 538.198 655.11 538.117 655.147 538.026 C 655.184 537.937 655.202 537.842 655.202 537.746 C 655.202 537.65 655.184 537.555 655.147 537.466 C 655.11 537.375 655.055 537.294 654.985 537.227 C 654.915 537.161 654.835 537.11 654.743 537.077 C 654.651 537.044 654.555 537.025 654.459 537.025 L 652.716 537.025 L 652.716 535.973 L 655.291 535.973 C 655.386 535.973 655.482 535.959 655.57 535.925 C 655.662 535.892 655.743 535.845 655.813 535.778 C 655.883 535.712 655.942 535.631 655.978 535.543 C 656.015 535.451 656.033 535.355 656.033 535.26 C 656.033 535.164 656.015 535.065 655.978 534.977 C 655.945 534.885 655.89 534.8 655.817 534.734 C 655.747 534.668 655.666 534.616 655.574 534.583 C 655.482 534.55 655.386 534.532 655.291 534.532 L 651.966 534.532 C 651.87 534.532 651.771 534.55 651.683 534.587 C 651.591 534.62 651.51 534.675 651.436 534.741 C 651.366 534.811 651.307 534.896 651.271 534.988 C 651.234 535.083 651.215 535.183 651.215 535.282 L 651.215 540.262 C 651.215 540.361 651.234 540.457 651.271 540.549 C 651.307 540.641 651.363 540.725 651.432 540.795 C 651.502 540.865 651.587 540.92 651.679 540.957 C 651.771 540.994 651.866 541.012 651.966 541.012 L 655.291 541.012 L 655.291 541.012 Z  M 661.212 535.565 C 661.205 535.525 661.19 535.484 661.175 535.447 C 661.157 535.411 661.135 535.374 661.113 535.341 C 661.091 535.308 661.065 535.274 661.036 535.245 C 661.006 535.219 660.977 535.194 660.947 535.168 C 660.796 535.046 660.638 534.936 660.473 534.841 C 660.329 534.756 660.179 534.682 660.024 534.627 C 659.866 534.572 659.704 534.528 659.539 534.506 C 659.336 534.473 659.13 534.458 658.924 534.458 C 658.7 534.458 658.479 534.48 658.259 534.524 C 658.053 534.568 657.85 534.631 657.659 534.719 C 657.468 534.804 657.284 534.907 657.111 535.024 C 656.942 535.142 656.784 535.278 656.64 535.429 C 656.497 535.576 656.368 535.738 656.254 535.914 C 656.14 536.091 656.041 536.282 655.96 536.477 C 655.879 536.676 655.82 536.882 655.78 537.091 C 655.739 537.316 655.717 537.54 655.717 537.768 C 655.717 537.996 655.739 538.224 655.78 538.448 C 655.82 538.662 655.879 538.868 655.96 539.066 C 656.041 539.265 656.14 539.456 656.254 539.636 C 656.368 539.809 656.497 539.975 656.64 540.122 C 656.784 540.273 656.942 540.409 657.115 540.527 C 657.288 540.644 657.472 540.747 657.663 540.832 C 657.858 540.916 658.06 540.979 658.27 541.019 C 658.483 541.063 658.704 541.086 658.924 541.086 C 659.112 541.086 659.296 541.071 659.48 541.038 C 659.656 541.008 659.833 540.964 660.002 540.902 C 660.171 540.843 660.333 540.766 660.491 540.677 C 660.66 540.585 660.818 540.475 660.969 540.354 C 661.013 540.313 661.05 540.269 661.083 540.221 C 661.109 540.181 661.135 540.137 661.153 540.093 C 661.172 540.048 661.186 540.001 661.197 539.953 C 661.208 539.905 661.212 539.853 661.212 539.806 C 661.212 539.714 661.197 539.622 661.164 539.533 C 661.135 539.445 661.087 539.364 661.021 539.298 C 660.962 539.236 660.892 539.184 660.815 539.147 C 660.738 539.111 660.657 539.088 660.572 539.081 C 660.48 539.074 660.388 539.085 660.304 539.114 C 660.215 539.14 660.134 539.184 660.061 539.236 C 659.969 539.302 659.877 539.364 659.778 539.419 C 659.689 539.467 659.597 539.511 659.502 539.548 C 659.413 539.581 659.322 539.607 659.226 539.625 C 659.127 539.644 659.027 539.651 658.924 539.651 C 658.807 539.651 658.689 539.64 658.575 539.614 C 658.468 539.592 658.362 539.556 658.259 539.511 C 658.156 539.464 658.056 539.408 657.964 539.342 C 657.869 539.272 657.781 539.195 657.703 539.111 C 657.622 539.026 657.553 538.934 657.49 538.838 C 657.424 538.735 657.369 538.625 657.325 538.511 C 657.28 538.401 657.247 538.283 657.225 538.165 C 657.199 538.033 657.188 537.9 657.188 537.768 C 657.188 537.639 657.199 537.507 657.225 537.378 C 657.247 537.261 657.28 537.143 657.325 537.033 C 657.369 536.919 657.424 536.808 657.49 536.705 C 657.553 536.61 657.622 536.518 657.703 536.433 C 657.784 536.345 657.869 536.271 657.964 536.201 C 658.056 536.135 658.156 536.076 658.262 536.028 C 658.362 535.981 658.468 535.944 658.579 535.922 C 658.693 535.896 658.807 535.885 658.924 535.885 C 659.06 535.885 659.2 535.896 659.336 535.918 C 659.41 535.929 659.48 535.951 659.546 535.981 C 659.627 536.014 659.7 536.054 659.77 536.098 C 659.859 536.153 659.943 536.216 660.02 536.286 C 660.098 536.348 660.186 536.396 660.278 536.426 C 660.37 536.459 660.462 536.47 660.557 536.462 C 660.642 536.455 660.727 536.433 660.804 536.4 C 660.881 536.367 660.955 536.319 661.017 536.26 C 661.087 536.198 661.142 536.12 661.179 536.032 C 661.216 535.948 661.234 535.856 661.234 535.76 C 661.234 535.727 661.234 535.694 661.23 535.657 C 661.227 535.628 661.219 535.594 661.212 535.565 L 661.212 535.565 Z  M 648.24 538.798 L 647.685 538.798 L 647.685 540.262 C 647.685 540.357 647.666 540.457 647.63 540.545 C 647.596 540.637 647.541 540.718 647.475 540.791 C 647.405 540.861 647.321 540.92 647.229 540.957 C 647.133 540.994 647.034 541.012 646.934 541.012 C 646.835 541.012 646.74 540.994 646.648 540.957 C 646.556 540.92 646.471 540.865 646.401 540.795 C 646.331 540.725 646.276 540.641 646.239 540.549 C 646.203 540.457 646.184 540.361 646.184 540.262 L 646.184 535.282 C 646.184 535.183 646.203 535.083 646.239 534.988 C 646.276 534.896 646.335 534.811 646.405 534.741 C 646.478 534.675 646.559 534.62 646.651 534.587 C 646.74 534.55 646.839 534.532 646.934 534.532 L 648.258 534.532 C 648.468 534.532 648.674 534.557 648.88 534.605 C 649.064 534.649 649.244 534.715 649.413 534.807 C 649.579 534.899 649.733 535.013 649.873 535.142 C 650.009 535.271 650.123 535.418 650.219 535.58 C 650.314 535.742 650.388 535.918 650.432 536.098 C 650.484 536.297 650.509 536.503 650.509 536.709 C 650.509 536.904 650.484 537.099 650.432 537.286 C 650.384 537.463 650.311 537.636 650.215 537.79 C 650.119 537.948 650.002 538.088 649.869 538.213 C 649.819 538.26 649.766 538.304 649.711 538.345 L 650.6 539.884 C 650.648 539.967 650.681 540.062 650.694 540.157 C 650.711 540.253 650.703 540.351 650.683 540.447 C 650.657 540.543 650.614 540.636 650.552 540.714 C 650.488 540.794 650.411 540.859 650.325 540.909 C 650.239 540.958 650.147 540.99 650.049 541.004 C 649.951 541.019 649.85 541.013 649.755 540.987 C 649.659 540.962 649.569 540.916 649.491 540.855 C 649.414 540.794 649.35 540.72 649.3 540.634 L 648.24 538.798 L 648.24 538.798 Z  M 648.258 535.973 C 648.339 535.973 648.424 535.984 648.505 536.003 C 648.564 536.017 648.623 536.039 648.678 536.069 C 648.733 536.098 648.784 536.135 648.829 536.179 C 648.873 536.22 648.909 536.268 648.943 536.323 C 648.972 536.374 648.994 536.429 649.009 536.488 C 649.027 536.558 649.038 536.635 649.038 536.709 C 649.038 536.771 649.031 536.834 649.012 536.893 C 648.998 536.944 648.976 536.992 648.95 537.036 C 648.921 537.084 648.884 537.128 648.843 537.165 C 648.795 537.205 648.744 537.238 648.689 537.268 C 648.634 537.294 648.571 537.316 648.512 537.33 C 648.428 537.349 648.343 537.356 648.258 537.356 L 647.685 537.356 L 647.685 535.973 L 648.258 535.973 L 648.258 535.973 Z " fill-rule="evenodd" fill="rgb(0,0,0)"/></g></svg>
